icons/lines/folder-cross.svg

<svg xmlns="http://www.w3.org/2000/svg" width="24" height="24" viewBox="0 0 24 24" fill="none" stroke="currentColor" stroke-width="2" stroke-linecap="round" stroke-linejoin="round">
  <path d="m13.77 12.23-3.54 3.54" />
  <path d="m13.81 15.73-3.54-3.54" />
  <path d="M22 17c0 4-1 5-5 5H7c-4 0-5-1-5-5V7c0-4 1-5 5-5h1.5c1.5 0 1.83.44 2.4 1.2l1.5 2c.38.5.6.8 1.6.8h3c4 0 5 1 5 5z" />
</svg>

<svg xmlns="http://www.w3.org/2000/svg" width="24" height="24" viewBox="0 0 24 24" fill="none" stroke="currentColor" stroke-width="2" stroke-linecap="round" stroke-linejoin="round" >
  <path d="M13.81 15.7299L10.27 12.1899" stroke-miterlimit="10"/>
  <path d="M13.77 12.23L10.23 15.77" stroke-miterlimit="10"/>
  <path d="M22 11V17C22 21 21 22 17 22H7C3 22 2 21 2 17V7C2 3 3 2 7 2H8.5C10 2 10.33 2.44 10.9 3.2L12.4 5.2C12.78 5.7 13 6 14 6H17C21 6 22 7 22 11Z" stroke-miterlimit="10"/>
  </svg>
